X:137
T:John Dwyer's
R:reel
M:4/4
L:1/8
K:Gmaj
|:ge|dB~B2 GEDE|GB~B2 dBGB|AGAB AGED|(3EFG AB c2Bc|
dB~B2 GEDE|GB~B2 dBGA|B2BA BdcB|AGAB G2:|
|:ga|bg~g2 bg~g2|af~f2 af~f2|bg~g2 bgag|eaag a2ga|
bg~g2 agef|gage dBGA|B2BA BdcB|AGAB G2:|

